X: 3905
T: Blackberry Blossom, The
R: reel
M: 4/4
K: Gmajor
|:"G"GABG "D"FGAF|"C"EFGE "G"D4|"C"EFGE "G"D2GA|"Em"B2B2 "D"cBAB|
"G"GABG "D"FGAF|"C"EFGE "G"D4|"C"EFGE "G"D2GA|BG"D"AG- "G"G4:|
|:"Em"B2eB de3|edBA BAGE|B2eB de3|edBA "B7"B4|
"Em"(3Bde gb aged|"B7"(3^ABd (3ABd "Em"B=AGE|"G"DEBA "C"GDED|"G"BG"D"AG- "G"G4:|

